frontend/public/icon/my-blog_logo_mini.svg

<svg xmlns="http://www.w3.org/2000/svg" xml:space="preserve" style="fill-rule:evenodd;clip-rule:evenodd;stroke-linecap:round;stroke-linejoin:round;stroke-miterlimit:1.5" viewBox="0 0 17 17"><circle cx="73.32" cy="10.765" r="7.618" style="fill:#fff;stroke:#fff;stroke-width:.1px" transform="translate(-68.68 -3.242)scale(1.04608)"/><path d="M49.06 50.76c-.137-.027-.253.267-.273.468-.076.779-.152 1.597-.228 2.402-.008.649.037.992.396 1.232.342.229 1.121.211 1.343.211l.946-.001c.604 0 1.206.014 1.403-.324.173-.297.078-.974.063-1.122-.116-1.125-.185-1.986-.257-2.496-.026-.182-.168-.334-.267-.318-.309.051-.438.033-.865.036l-1.077-.003c-.701-.015-.979-.045-1.184-.085" style="fill:none;stroke:#000;stroke-width:.22px" transform="matrix(1.2964 -.13559 .14897 1.4243 -65.15 -59.192)"/><path d="M49.008 52.12c-.129.209-.15.494-.211.846-.022.226-.029.238-.064.548-.04.347-.128.851.064 1.204.163.301 1.279.355 1.501.355l.946-.001c.604 0 1.012.041 1.209-.298.173-.296.134-.759.119-.906-.034-.322-.07-.69-.119-1.006-.028-.181-.119-.553-.296-.754-.106-.12-.362-.215-.785-.218l-1.432-.01c-.524-.003-.781-.005-.932.24" style="fill:none;stroke:#000;stroke-width:.29px" transform="matrix(1.2964 -.13559 .07313 .69924 -61.603 -25.279)"/><path d="M49.794 50.425c0-.071-.032-.128-.072-.128h-.143c-.04 0-.072.057-.072.128v3.227c0 .07.032.127.072.127h.143c.04 0 .072-.057.072-.127z" style="fill:none;stroke:#000;stroke-width:.22px" transform="matrix(1.71048 -.01571 -.0107 .96078 -77.751 -41.068)"/><path d="M49.794 50.438c0-.078-.032-.141-.072-.141h-.143c-.04 0-.072.063-.072.141v3.2c0 .078.032.141.072.141h.143c.04 0 .072-.063.072-.141z" style="fill:none;stroke:#000;stroke-width:.2px" transform="matrix(1.84752 -.28388 .15428 .939 -89.902 -26.923)"/><path d="M49.66 52.461c.115-.113.291-.116.583-.116h.576c.205 0 .397-.005.532.11.155.132.163.411.17.565l.086 1.182h-2.193l.109-1.366c.013-.133.047-.287.137-.375" style="fill:none;stroke:#000;stroke-width:.27px" transform="matrix(1.05116 -.10994 .12496 1.1948 -51.398 -48.906)"/><path d="m48.336 53.833.619.204c.098.036.51.138.614.152.114.016.327.01.504.01l.644-.01c.136-.002.527-.002.63-.02.111-.019.358-.054.456-.083l.718-.193" style="fill:none;stroke:#000;stroke-width:.24px" transform="matrix(1.26036 -.13182 .12817 1.2254 -62.029 -49.42)"/><path d="m52.49 53.655.356.036c.112.018.25.04.301.106s.117.332.167.591l.091.612c.017.174.048.319-.049.479-.084.141-.229.174-.454.205-.136.019-.31.012-.472.014.118-.265.143-.747.115-1.12a36 36 0 0 1-.055-.923" style="fill:none;stroke:#000;stroke-width:.26px" transform="matrix(1.21295 -.12686 .11537 1.10304 -58.771 -43.07)"/><path d="m52.478 53.652.365.031c.106.006.305.025.343.063.051.05.078.383.128.642l.091.612c.017.174.037.381-.059.502-.102.127-.238.175-.494.184-.137.005-.317.027-.592-.033.152-.224.238-.496.26-1.061.006-.18.011-.529-.042-.94" style="fill:none;stroke:#000;stroke-width:.26px" transform="matrix(-1.21295 .12686 .11537 1.10304 63.245 -55.839)"/><path d="M49.387 55.782c.267-.252.493-.442 1.02-.441.61.002.882.285 1.109.481z" style="fill:none;stroke:#000;stroke-width:.24px" transform="matrix(1.26036 -.13182 .12817 1.2254 -62.082 -49.384)"/><path d="M49.893 49.083c-.016-.184-.076-.337.048-.445.109-.095.81-.112.947-.002.144.114.096.287.065.467z" style="fill:none;stroke:#000;stroke-width:.24px" transform="matrix(1.26036 -.13182 .12817 1.2254 -61.988 -49.394)"/><text x="85.772" y="30.031" style="font-family:&quot;IM_FELL_French_Canon_Roman&quot;,&quot;IM FELL French Canon&quot;;font-size:3.5px" transform="rotate(-29.479 -4.703 179.444)scale(1.04607)">L</text><text x="87.75" y="29.046" style="font-family:&quot;IM_FELL_French_Canon_Roman&quot;,&quot;IM FELL French Canon&quot;;font-size:3.5px" transform="rotate(-7.253 -166.538 686.289)scale(1.04607)">i</text><text x="88.867" y="28.902" style="font-family:&quot;IM_FELL_French_Canon_Roman&quot;,&quot;IM FELL French Canon&quot;;font-size:3.5px" transform="rotate(9.058 223.326 -518.273)scale(1.04607)">t</text><text x="90.207" y="29.137" style="font-family:&quot;IM_FELL_French_Canon_Roman&quot;,&quot;IM FELL French Canon&quot;;font-size:3.5px" transform="rotate(27.483 107.922 -156.096)scale(1.04607)">t</text><text x="91.392" y="29.8" style="font-family:&quot;IM_FELL_French_Canon_Roman&quot;,&quot;IM FELL French Canon&quot;;font-size:3.5px" transform="rotate(43.464 87.53 -88.378)scale(1.04607)">l</text><text x="92.202" y="30.505" style="font-family:&quot;IM_FELL_French_Canon_Roman&quot;,&quot;IM FELL French Canon&quot;;font-size:3.5px" transform="rotate(63.474 76.17 -49.814)scale(1.04607)">e</text><text x="84.443" y="32.895" style="font-family:&quot;IM_FELL_French_Canon_Roman&quot;,&quot;IM FELL French Canon&quot;;font-size:3.5px" transform="matrix(.19384 1.02795 -1.0144 .26572 17.479 -87.185)">A</text><text x="84.634" y="34.438" style="font-family:&quot;IM_FELL_French_Canon_Roman&quot;,&quot;IM FELL French Canon&quot;;font-size:3.5px" transform="matrix(.53119 .90117 -.86402 .5942 -14.073 -85.773)">d</text><text x="85.266" y="35.678" style="font-family:&quot;IM_FELL_French_Canon_Roman&quot;,&quot;IM FELL French Canon&quot;;font-size:3.5px" transform="matrix(.77198 .70591 -.65193 .82134 -40.138 -76.557)">v</text><text x="86.095" y="36.547" style="font-family:&quot;IM_FELL_French_Canon_Roman&quot;,&quot;IM FELL French Canon&quot;;font-size:3.5px" transform="matrix(.93093 .4771 -.412 .9643 -61.078 -62.043)">e</text><text x="87.159" y="37.213" style="font-family:&quot;IM_FELL_French_Canon_Roman&quot;,&quot;IM FELL French Canon&quot;;font-size:3.5px" transform="matrix(1.03453 .15493 -.08259 1.04537 -80.981 -37.19)">n</text><text x="88.651" y="37.454" style="font-family:&quot;IM_FELL_French_Canon_Roman&quot;,&quot;IM FELL French Canon&quot;;font-size:3.5px" transform="matrix(1.04001 -.1124 .18512 1.03215 -90.654 -13.266)">t</text><text x="89.414" y="37.479" style="font-family:&quot;IM_FELL_French_Canon_Roman&quot;,&quot;IM FELL French Canon&quot;;font-size:3.5px" transform="matrix(.97712 -.3735 .44182 .951 -93.88 12.964)">u</text><text x="90.818" y="36.982" style="font-family:&quot;IM_FELL_French_Canon_Roman&quot;,&quot;IM FELL French Canon&quot;;font-size:3.5px" transform="matrix(.82145 -.64767 .70512 .77616 -88.374 44.283)">r</text><text x="91.64" y="36.443" style="font-family:&quot;IM_FELL_French_Canon_Roman&quot;,&quot;IM FELL French Canon&quot;;font-size:3.5px" transform="matrix(.63409 -.83198 .87632 .5759 -76.365 68.256)">e</text><text x="92.417" y="35.484" style="font-family:&quot;IM_FELL_French_Canon_Roman&quot;,&quot;IM FELL French Canon&quot;;font-size:3.5px" transform="matrix(.42097 -.95762 .98706 .35401 -59.107 87.272)">s</text></svg>

<?xml version="1.0" encoding="UTF-8" standalone="no"?>
<!DOCTYPE svg PUBLIC "-//W3C//DTD SVG 1.1//EN" "http://www.w3.org/Graphics/SVG/1.1/DTD/svg11.dtd">
<svg width="100%" height="100%" viewBox="0 0 17 17" version="1.1" xmlns="http://www.w3.org/2000/svg" xmlns:xlink="http://www.w3.org/1999/xlink" xml:space="preserve" xmlns:serif="http://www.serif.com/" style="fill-rule:evenodd;clip-rule:evenodd;stroke-linecap:round;stroke-linejoin:round;stroke-miterlimit:1.5;">
    <g transform="matrix(1,0,0,1,-65.6524,-3.09732)">
        <g transform="matrix(1,0,0,1,7.74675,11.3481)">
            <g transform="matrix(1.04608,0,0,1.04608,-10.7743,-11.4931)">
                <circle cx="73.32" cy="10.765" r="7.618" style="fill:white;stroke:white;stroke-width:0.1px;"/>
            </g>
        </g>
        <g transform="matrix(1,0,0,1,7.74675,11.3481)">
            <g transform="matrix(1.26036,-0.131821,0.128165,1.2254,7.13578,-44.7596)">
                <g transform="matrix(1.02859,0,0,1.16231,-9.42448,-19.5243)">
                    <path d="M49.06,50.76C48.923,50.733 48.807,51.027 48.787,51.228C48.711,52.007 48.635,52.825 48.559,53.63C48.551,54.279 48.596,54.622 48.955,54.862C49.297,55.091 50.076,55.073 50.298,55.073L51.244,55.072C51.848,55.072 52.45,55.086 52.647,54.748C52.82,54.451 52.725,53.774 52.71,53.626C52.594,52.501 52.525,51.64 52.453,51.13C52.427,50.948 52.285,50.796 52.186,50.812C51.877,50.863 51.748,50.845 51.321,50.848L50.244,50.845C49.543,50.83 49.265,50.8 49.06,50.76Z" style="fill:none;stroke:black;stroke-width:0.22px;"/>
                </g>
                <g transform="matrix(1.02859,0,0,0.570618,-9.42448,8.15064)">
                    <path d="M49.008,52.12C48.879,52.329 48.858,52.614 48.797,52.966C48.775,53.192 48.768,53.204 48.733,53.514C48.693,53.861 48.605,54.365 48.797,54.718C48.96,55.019 50.076,55.073 50.298,55.073L51.244,55.072C51.848,55.072 52.256,55.113 52.453,54.774C52.626,54.478 52.587,54.015 52.572,53.868C52.538,53.546 52.502,53.178 52.453,52.862C52.425,52.681 52.334,52.309 52.157,52.108C52.051,51.988 51.795,51.893 51.372,51.89L49.94,51.88C49.416,51.877 49.159,51.875 49.008,52.12Z" style="fill:none;stroke:black;stroke-width:0.29px;"/>
                </g>
                <g transform="matrix(1.34374,0.131729,-0.0872712,0.774666,-20.8017,-5.95826)">
                    <path d="M49.794,50.425C49.794,50.354 49.762,50.297 49.722,50.297L49.579,50.297C49.539,50.297 49.507,50.354 49.507,50.425L49.507,53.652C49.507,53.722 49.539,53.779 49.579,53.779L49.722,53.779C49.762,53.779 49.794,53.722 49.794,53.652L49.794,50.425Z" style="fill:none;stroke:black;stroke-width:0.22px;"/>
                </g>
                <g transform="matrix(1.47331,-0.0731701,0.044004,0.771009,-31.4995,4.43433)">
                    <path d="M49.794,50.438C49.794,50.36 49.762,50.297 49.722,50.297L49.579,50.297C49.539,50.297 49.507,50.36 49.507,50.438L49.507,53.638C49.507,53.716 49.539,53.779 49.579,53.779L49.722,53.779C49.762,53.779 49.794,53.716 49.794,53.638L49.794,50.438Z" style="fill:none;stroke:black;stroke-width:0.2px;"/>
                </g>
                <g transform="matrix(0.834015,0,0,0.975023,0.525029,-10.0607)">
                    <path d="M49.66,52.461C49.775,52.348 49.951,52.345 50.243,52.345L50.819,52.345C51.024,52.345 51.216,52.34 51.351,52.455C51.506,52.587 51.514,52.866 51.521,53.02L51.607,54.202L49.414,54.202L49.523,52.836C49.536,52.703 49.57,52.549 49.66,52.461Z" style="fill:none;stroke:black;stroke-width:0.27px;"/>
                </g>
                <g transform="matrix(1,0,0,1,-7.77671,-11.3726)">
                    <path d="M48.336,53.833L48.955,54.037C49.053,54.073 49.465,54.175 49.569,54.189C49.683,54.205 49.896,54.199 50.073,54.199L50.717,54.189C50.853,54.187 51.244,54.187 51.347,54.169C51.458,54.15 51.705,54.115 51.803,54.086L52.521,53.893" style="fill:none;stroke:black;stroke-width:0.24px;"/>
                </g>
                <g transform="matrix(0.962384,0,0,0.900147,-5.74116,-5.97149)">
                    <path d="M52.49,53.655L52.846,53.691C52.958,53.709 53.096,53.731 53.147,53.797C53.198,53.863 53.264,54.129 53.314,54.388L53.405,55C53.422,55.174 53.453,55.319 53.356,55.479C53.272,55.62 53.127,55.653 52.902,55.684C52.766,55.703 52.592,55.696 52.43,55.698C52.548,55.433 52.573,54.951 52.545,54.578C52.532,54.412 52.504,53.97 52.49,53.655Z" style="fill:none;stroke:black;stroke-width:0.26px;"/>
                </g>
                <g transform="matrix(-0.962384,0,0,0.900147,91.0698,-5.97788)">
                    <path d="M52.478,53.652L52.843,53.683C52.949,53.689 53.148,53.708 53.186,53.746C53.237,53.796 53.264,54.129 53.314,54.388L53.405,55C53.422,55.174 53.442,55.381 53.346,55.502C53.244,55.629 53.108,55.677 52.852,55.686C52.715,55.691 52.535,55.713 52.26,55.653C52.412,55.429 52.498,55.157 52.52,54.592C52.526,54.412 52.531,54.063 52.478,53.652Z" style="fill:none;stroke:black;stroke-width:0.26px;"/>
                </g>
                <g transform="matrix(1,0,0,1,-7.82164,-11.3481)">
                    <path d="M49.387,55.782C49.654,55.53 49.88,55.34 50.407,55.341C51.017,55.343 51.289,55.626 51.516,55.822L49.387,55.782" style="fill:none;stroke:black;stroke-width:0.24px;"/>
                </g>
                <g transform="matrix(1,0,0,1,-7.74675,-11.3481)">
                    <path d="M49.893,49.083C49.877,48.899 49.817,48.746 49.941,48.638C50.05,48.543 50.751,48.526 50.888,48.636C51.032,48.75 50.984,48.923 50.953,49.103L49.893,49.083" style="fill:none;stroke:black;stroke-width:0.24px;"/>
                </g>
            </g>
        </g>
        <g transform="matrix(1,0,0,1,7.74675,11.3481)">
            <g transform="matrix(1.04607,0,0,1.04607,-26.9067,-35.099)">
                <g transform="matrix(0.870539,-0.4921,0.4921,0.870539,-3.92013,45.6612)">
                    <text x="85.772px" y="30.031px" style="font-family:'IM_FELL_French_Canon_Roman', 'IM FELL French Canon';font-size:3.5px;">L</text>
                </g>
                <g transform="matrix(0.991998,-0.126255,0.126255,0.991998,-3.02814,10.8154)">
                    <text x="87.75px" y="29.046px" style="font-family:'IM_FELL_French_Canon_Roman', 'IM FELL French Canon';font-size:3.5px;">i</text>
                </g>
                <g transform="matrix(0.987529,0.157438,-0.157438,0.987529,5.73728,-14.1244)">
                    <text x="88.867px" y="28.902px" style="font-family:'IM_FELL_French_Canon_Roman', 'IM FELL French Canon';font-size:3.5px;">t</text>
                </g>
                <g transform="matrix(0.887149,0.461483,-0.461483,0.887149,23.8568,-38.7846)">
                    <text x="90.207px" y="29.137px" style="font-family:'IM_FELL_French_Canon_Roman', 'IM FELL French Canon';font-size:3.5px;">t</text>
                </g>
                <g transform="matrix(0.725801,0.687905,-0.687905,0.725801,45.9027,-55.0608)">
                    <text x="91.392px" y="29.8px" style="font-family:'IM_FELL_French_Canon_Roman', 'IM FELL French Canon';font-size:3.5px;">l</text>
                </g>
                <g transform="matrix(0.446597,0.894735,-0.894735,0.446597,78.7658,-65.8383)">
                    <text x="92.202px" y="30.505px" style="font-family:'IM_FELL_French_Canon_Roman', 'IM FELL French Canon';font-size:3.5px;">e</text>
                </g>
                <g transform="matrix(0.185301,0.982682,-0.969724,0.254016,97.7859,-57.6799)">
                    <text x="84.443px" y="32.895px" style="font-family:'IM_FELL_French_Canon_Roman', 'IM FELL French Canon';font-size:3.5px;">A</text>
                </g>
                <g transform="matrix(0.507796,0.861477,-0.825969,0.568036,67.6238,-56.3298)">
                    <text x="84.634px" y="34.438px" style="font-family:'IM_FELL_French_Canon_Roman', 'IM FELL French Canon';font-size:3.5px;">d</text>
                </g>
                <g transform="matrix(0.737978,0.674825,-0.62322,0.785166,42.7072,-47.5194)">
                    <text x="85.266px" y="35.678px" style="font-family:'IM_FELL_French_Canon_Roman', 'IM FELL French Canon';font-size:3.5px;">v</text>
                </g>
                <g transform="matrix(0.889935,0.456088,-0.393857,0.921828,22.6889,-33.6444)">
                    <text x="86.095px" y="36.547px" style="font-family:'IM_FELL_French_Canon_Roman', 'IM FELL French Canon';font-size:3.5px;">e</text>
                </g>
                <g transform="matrix(0.988971,0.148107,-0.0789511,0.999328,3.66243,-9.88577)">
                    <text x="87.159px" y="37.213px" style="font-family:'IM_FELL_French_Canon_Roman', 'IM FELL French Canon';font-size:3.5px;">n</text>
                </g>
                <g transform="matrix(0.994211,-0.107448,0.17697,0.986697,-5.58411,12.9838)">
                    <text x="88.651px" y="37.454px" style="font-family:'IM_FELL_French_Canon_Roman', 'IM FELL French Canon';font-size:3.5px;">t</text>
                </g>
                <g transform="matrix(0.934087,-0.357046,0.422363,0.90912,-8.66914,38.0585)">
                    <text x="89.414px" y="37.479px" style="font-family:'IM_FELL_French_Canon_Roman', 'IM FELL French Canon';font-size:3.5px;">u</text>
                </g>
                <g transform="matrix(0.785273,-0.61915,0.674062,0.741977,-3.40511,67.9982)">
                    <text x="90.818px" y="36.982px" style="font-family:'IM_FELL_French_Canon_Roman', 'IM FELL French Canon';font-size:3.5px;">r</text>
                </g>
                <g transform="matrix(0.606161,-0.795342,0.837729,0.550545,8.07566,90.9161)">
                    <text x="91.64px" y="36.443px" style="font-family:'IM_FELL_French_Canon_Roman', 'IM FELL French Canon';font-size:3.5px;">e</text>
                </g>
                <g transform="matrix(0.402434,-0.915449,0.94359,0.338419,24.5734,109.094)">
                    <text x="92.417px" y="35.484px" style="font-family:'IM_FELL_French_Canon_Roman', 'IM FELL French Canon';font-size:3.5px;">s</text>
                </g>
            </g>
        </g>
    </g>
</svg>
